app/dist/common/images/nitori-holdings.svg

<svg height="18" viewBox="0 0 18 18" width="18" xmlns="http://www.w3.org/2000/svg"><path d="m0 0h18v18h-18z" fill="#009e96"/><path d="m13.5 6h-2v3.55h2zm-7.5 0h-3.5v2h3.5zm0 4h-4v2h4zm1-4h2v1.54l2.19.85-.57 1.77-1.62-.63v2.47h-2zm7 0h2v3.67h-.01a.98.98 0 0 1 -.42.78l-1.81 1.55-1.05-1.48 1.29-1.1z" fill="#fff"/></svg>

<!-- by TradingView --><svg xmlns="http://www.w3.org/2000/svg" width="18" height="18" viewBox="0 0 18 18"><path fill="#009E96" d="M0 0h18v18H0z"/><path d="M13.5 6h-2v3.55h2V6ZM6 6H2.5v2H6V6Zm0 4H2v2h4v-2Zm1-4h2v1.54l2.19.85-.57 1.77L9 9.53V12H7V6Zm7 0h2v3.67h-.01a.98.98 0 0 1-.42.78L13.76 12l-1.05-1.48L14 9.42V6Z" fill="#fff"/></svg>
